icons/svg/seamark/notice_information_mooringpermitted.svg

<?xml version="1.0" encoding="UTF-8" standalone="no"?>
<svg
   xmlns:dc="http://purl.org/dc/elements/1.1/"
   xmlns:cc="http://creativecommons.org/ns#"
   xmlns:rdf="http://www.w3.org/1999/02/22-rdf-syntax-ns#"
   xmlns:svg="http://www.w3.org/2000/svg"
   xmlns="http://www.w3.org/2000/svg"
   xmlns:sodipodi="http://sodipodi.sourceforge.net/DTD/sodipodi-0.dtd"
   xmlns:inkscape="http://www.inkscape.org/namespaces/inkscape"
   width="320"
   height="320"
   id="svg2"
   version="1.1"
   inkscape:version="0.48.4 r9939"
   sodipodi:docname="notice_information_anchoringpermitted.svg">
  <defs
     id="defs13">
    <inkscape:path-effect
       effect="gears"
       id="path-effect3774"
       is_visible="true"
       teeth="6"
       phi="-1.2" />
    <inkscape:path-effect
       effect="bend_path"
       id="path-effect3772"
       is_visible="false"
       bendpath="m 95.790098,316.51174 c 144.429032,-206.42506 223.313032,-11.7428 339.548092,0"
       prop_scale="1.19"
       scale_y_rel="false"
       vertical="false"
       bendpath-nodetypes="cc" />
  </defs>
  <sodipodi:namedview
     pagecolor="#ffffff"
     bordercolor="#666666"
     borderopacity="1"
     objecttolerance="10"
     gridtolerance="10"
     guidetolerance="10"
     inkscape:pageopacity="0"
     inkscape:pageshadow="2"
     inkscape:window-width="1920"
     inkscape:window-height="1004"
     id="namedview11"
     showgrid="true"
     inkscape:zoom="1.4142136"
     inkscape:cx="112.04435"
     inkscape:cy="196.96289"
     inkscape:window-x="1680"
     inkscape:window-y="0"
     inkscape:window-maximized="1"
     inkscape:current-layer="svg2"
     inkscape:snap-bbox="true"
     inkscape:object-nodes="true"
     inkscape:snap-midpoints="true"
     inkscape:snap-grids="true"
     inkscape:snap-bbox-edge-midpoints="true"
     showguides="true"
     inkscape:guide-bbox="true"
     inkscape:snap-global="true">
    <inkscape:grid
       type="xygrid"
       id="grid2990"
       empspacing="5"
       visible="true"
       enabled="true"
       snapvisiblegridlinesonly="true"
       spacingx="10px"
       spacingy="10px"
       dotted="false" />
    <sodipodi:guide
       orientation="1,0"
       position="55.202458,260.58927"
       id="guide3872" />
    <sodipodi:guide
       orientation="1,0"
       position="265.17816,340"
       id="guide3874" />
    <sodipodi:guide
       orientation="0,1"
       position="317.80107,264.96094"
       id="guide3876" />
    <sodipodi:guide
       orientation="0,1"
       position="325.098,54.759006"
       id="guide3878" />
  </sodipodi:namedview>
  <metadata
     id="metadata2975">image/svg+xmlen<rdf:RDF>
  <cc:Work
     rdf:about="">
    <dc:format>image/svg+xml</dc:format>
    <dc:type
       rdf:resource="http://purl.org/dc/dcmitype/StillImage" />
    <dc:title></dc:title>
  </cc:Work>
</rdf:RDF>
</metadata>
  <g
     id="g3887"
     style="color:#000000;fill:#fefefe;fill-opacity:1;fill-rule:nonzero;stroke:#858585;stroke-width:0;stroke-linecap:butt;stroke-linejoin:miter;stroke-miterlimit:4;stroke-opacity:1;stroke-dasharray:none;stroke-dashoffset:0;marker:none;visibility:visible;display:inline;overflow:visible;enable-background:accumulate">
    <path
       sodipodi:nodetypes="zzccccz"
       inkscape:connector-curvature="0"
       id="rect3864"
       d="m 110.73095,114.14829 c 6.53778,-6.53778 65.75919,-7.04802 72.80721,0 7.04802,7.04802 6.83973,35.56277 -17.63711,35.15191 3.18547,24.68288 7.27203,67.47946 7.27203,67.47946 l -53.76855,0 c 0,0 2.97576,-35.70471 6.87256,-68.10209 -22.87093,-3.62074 -22.08393,-27.99149 -15.54614,-34.52928 z"
       style="color:#000000;fill:#fefefe;fill-opacity:1;fill-rule:nonzero;stroke:#858585;stroke-width:0;marker:none;visibility:visible;display:inline;overflow:visible;enable-background:accumulate;stroke-linecap:butt;stroke-linejoin:miter;stroke-miterlimit:4;stroke-opacity:1;stroke-dasharray:none;stroke-dashoffset:0" />
    <path
       style="font-size:medium;font-style:normal;font-variant:normal;font-weight:normal;font-stretch:normal;text-indent:0;text-align:start;text-decoration:none;line-height:normal;letter-spacing:normal;word-spacing:normal;text-transform:none;direction:ltr;block-progression:tb;writing-mode:lr-tb;text-anchor:start;baseline-shift:baseline;color:#000000;fill:#fefefe;fill-opacity:1;stroke:#858585;stroke-width:0;marker:none;visibility:visible;display:inline;overflow:visible;enable-background:accumulate;font-family:Sans;-inkscape-font-specification:Sans;fill-rule:nonzero;stroke-linecap:butt;stroke-linejoin:miter;stroke-miterlimit:4;stroke-opacity:1;stroke-dasharray:none;stroke-dashoffset:0"
       d="m 115.5,213.34375 c -6.28227,0.007 -11.53693,0.0102 -15.28125,0.0312 -1.872159,0.0105 -3.37515,0.0475 -4.4375,0.0625 -0.531175,0.008 -0.947524,-0.01 -1.28125,0 -0.166863,0.005 -0.312114,0.0227 -0.46875,0.0312 -0.156636,0.009 0.246646,-0.17103 -1.0625,0.15625 l 2.40625,9.6875 c -1.270746,0.31768 -0.78881,0.12541 -0.78125,0.125 0.0076,-4.1e-4 0.09964,0.004 0.21875,0 0.23823,-0.007 0.621164,-0.0241 1.125,-0.0312 1.007673,-0.0142 2.486267,-0.0208 4.34375,-0.0312 3.71497,-0.0209 8.97534,-0.024 15.25,-0.0312 12.54933,-0.0144 29.16295,-0.0192 45.75,0 33.17409,0.0384 66.1875,0.125 66.1875,0.125 l 0.0312,-10 c 0,0 -33.00566,-0.0866 -66.1875,-0.125 -16.59092,-0.0192 -33.24795,-0.0144 -45.8125,0 z"
       id="path3867"
       inkscape:connector-curvature="0" />
    <path
       style="font-size:medium;font-style:normal;font-variant:normal;font-weight:normal;font-stretch:normal;text-indent:0;text-align:start;text-decoration:none;line-height:normal;letter-spacing:normal;word-spacing:normal;text-transform:none;direction:ltr;block-progression:tb;writing-mode:lr-tb;text-anchor:start;baseline-shift:baseline;color:#000000;fill:#fefefe;fill-opacity:1;stroke:#858585;stroke-width:0;marker:none;visibility:visible;display:inline;overflow:visible;enable-background:accumulate;font-family:Sans;-inkscape-font-specification:Sans;fill-rule:nonzero;stroke-linecap:butt;stroke-linejoin:miter;stroke-miterlimit:4;stroke-opacity:1;stroke-dasharray:none;stroke-dashoffset:0"
       d="m 120.6875,155.8125 c -0.23992,0.001 0.0639,-0.2816 -1.9375,0.21875 a 7.50075,7.50075 0 0 0 2.1875,14.78125 c 0.14238,0.007 0.27071,0.0154 0.53125,0.0312 0.73511,0.0448 1.86597,0.14313 3.28125,0.25 2.83057,0.21374 6.83288,0.53823 11.625,0.9375 9.58424,0.79855 22.29079,1.89511 34.9375,3 25.29342,2.20977 50.4375,4.4375 50.4375,4.4375 a 7.50075,7.50075 0 1 0 1.3125,-14.9375 c 0,0 -25.15509,-2.25721 -50.46875,-4.46875 -12.65683,-1.10577 -25.34494,-2.19816 -34.96875,-3 -4.81191,-0.40092 -8.84382,-0.71805 -11.75,-0.9375 -1.45309,-0.10972 -2.62648,-0.19677 -3.5,-0.25 -0.43676,-0.0266 -0.7816,-0.0504 -1.125,-0.0625 -0.1717,-0.006 -0.32258,-0.001 -0.5625,0 z"
       id="path3867-9"
       inkscape:connector-curvature="0" />
  </g>
</svg>

<svg width="320" height="320" viewBox="0 0 320 320" fill="none" xmlns="http://www.w3.org/2000/svg">
<path d="M110.731 114.148C117.269 107.61 176.49 107.1 183.538 114.148C190.586 121.196 190.378 149.711 165.901 149.3C169.087 173.983 173.173 216.78 173.173 216.78H119.405C119.405 216.78 122.38 181.075 126.277 148.678C103.406 145.057 104.193 120.686 110.731 114.148V114.148Z" fill="#FEFEFE"/>
<path d="M115.5 213.344C109.218 213.351 103.963 213.354 100.219 213.375C98.3466 213.385 96.8436 213.422 95.7812 213.437C95.2501 213.445 94.8337 213.427 94.5 213.437C94.3331 213.442 94.1879 213.46 94.0312 213.469C93.8746 213.478 94.2779 213.298 92.9688 213.625L95.375 223.312C94.1043 223.63 94.5862 223.438 94.5938 223.437C94.6014 223.437 94.6934 223.441 94.8125 223.437C95.0507 223.43 95.4337 223.413 95.9375 223.406C96.9452 223.392 98.4238 223.385 100.281 223.375C103.996 223.354 109.257 223.351 115.531 223.344C128.081 223.329 144.694 223.325 161.281 223.344C194.455 223.382 227.469 223.469 227.469 223.469L227.5 213.469C227.5 213.469 194.494 213.382 161.312 213.344C144.722 213.325 128.064 213.329 115.5 213.344L115.5 213.344Z" fill="#FEFEFE"/>
<path d="M120.687 155.812C120.448 155.813 120.751 155.53 118.75 156.031C116.928 156.469 115.336 157.573 114.287 159.126C113.238 160.679 112.808 162.568 113.083 164.422C113.357 166.276 114.315 167.96 115.769 169.142C117.223 170.325 119.067 170.921 120.937 170.812C121.08 170.819 121.208 170.827 121.469 170.843C122.204 170.888 123.335 170.986 124.75 171.093C127.581 171.307 131.583 171.631 136.375 172.031C145.959 172.829 158.666 173.926 171.312 175.031C196.606 177.24 221.75 179.468 221.75 179.468C222.747 179.585 223.757 179.501 224.72 179.221C225.684 178.941 226.581 178.47 227.36 177.836C228.138 177.203 228.781 176.42 229.252 175.533C229.722 174.647 230.009 173.675 230.097 172.675C230.185 171.676 230.071 170.668 229.763 169.713C229.455 168.759 228.958 167.875 228.302 167.116C227.646 166.356 226.844 165.736 225.944 165.292C225.044 164.848 224.064 164.589 223.062 164.531C223.062 164.531 197.907 162.274 172.594 160.062C159.937 158.956 147.249 157.864 137.625 157.062C132.813 156.661 128.781 156.344 125.875 156.124C124.422 156.015 123.248 155.928 122.375 155.874C121.938 155.848 121.593 155.824 121.25 155.812C121.078 155.806 120.927 155.811 120.687 155.812V155.812Z" fill="#FEFEFE"/>
</svg>
